static/img/kroki/0ab32704e19d24ee4fc90fdb6dbdaa2e.svg

<?xml version="1.0" encoding="us-ascii" standalone="no"?><svg xmlns="http://www.w3.org/2000/svg" xmlns:xlink="http://www.w3.org/1999/xlink" contentStyleType="text/css" height="252px" preserveAspectRatio="none" style="width:360px;height:252px;" version="1.1" viewBox="0 0 360 252" width="360px" zoomAndPan="magnify"><defs/><g><!--class gcp_vertex_ai_dataset--><g id="elem_gcp_vertex_ai_dataset"><rect codeLine="23" fill="#3D176E" height="39.7891" id="gcp_vertex_ai_dataset" rx="2.5" ry="2.5" style="stroke:#000D19;stroke-width:0.5;" width="228" x="7" y="106.79"/><ellipse cx="22" cy="126.6845" fill="#ADD1B2" rx="11" ry="11" style="stroke:#181818;stroke-width:1.0;"/><path d="M24.9688,132.3252 Q24.3906,132.622 23.75,132.7627 Q23.1094,132.9189 22.4063,132.9189 Q19.9063,132.9189 18.5781,131.2783 Q17.2656,129.622 17.2656,126.497 Q17.2656,123.372 18.5781,121.7158 Q19.9063,120.0595 22.4063,120.0595 Q23.1094,120.0595 23.75,120.2158 Q24.4063,120.372 24.9688,120.6689 L24.9688,123.3877 Q24.3438,122.8095 23.75,122.5439 Q23.1563,122.2627 22.5313,122.2627 Q21.1875,122.2627 20.5,123.3408 Q19.8125,124.4033 19.8125,126.497 Q19.8125,128.5908 20.5,129.6689 Q21.1875,130.7314 22.5313,130.7314 Q23.1563,130.7314 23.75,130.4658 Q24.3438,130.1845 24.9688,129.6064 L24.9688,132.3252 Z " fill="#000000"/><text fill="#D9B8FF" font-family="Helvetica" font-size="17" lengthAdjust="spacing" textLength="186" x="41" y="132.5698">gcp_vertex_ai_dataset</text></g><!--class gcp_vertex_ai_dataset_version--><g id="elem_gcp_vertex_ai_dataset_version"><rect codeLine="26" fill="#3D176E" height="39.7891" id="gcp_vertex_ai_dataset_version" rx="2.5" ry="2.5" style="stroke:#000D19;stroke-width:0.5;" width="298" x="55" y="206.58"/><ellipse cx="70" cy="226.4745" fill="#ADD1B2" rx="11" ry="11" style="stroke:#181818;stroke-width:1.0;"/><path d="M72.9688,232.1152 Q72.3906,232.412 71.75,232.5527 Q71.1094,232.7089 70.4063,232.7089 Q67.9063,232.7089 66.5781,231.0683 Q65.2656,229.412 65.2656,226.287 Q65.2656,223.162 66.5781,221.5058 Q67.9063,219.8495 70.4063,219.8495 Q71.1094,219.8495 71.75,220.0058 Q72.4063,220.162 72.9688,220.4589 L72.9688,223.1777 Q72.3438,222.5995 71.75,222.3339 Q71.1563,222.0527 70.5313,222.0527 Q69.1875,222.0527 68.5,223.1308 Q67.8125,224.1933 67.8125,226.287 Q67.8125,228.3808 68.5,229.4589 Q69.1875,230.5214 70.5313,230.5214 Q71.1563,230.5214 71.75,230.2558 Q72.3438,229.9745 72.9688,229.3964 L72.9688,232.1152 Z " fill="#000000"/><text fill="#D9B8FF" font-family="Helvetica" font-size="17" lengthAdjust="spacing" textLength="256" x="89" y="232.3598">gcp_vertex_ai_dataset_version</text></g><!--class gcp_vertex_ai_model--><g id="elem_gcp_vertex_ai_model"><rect codeLine="29" fill="#3D176E" height="39.7891" id="gcp_vertex_ai_model" rx="2.5" ry="2.5" style="stroke:#000D19;stroke-width:0.5;" width="218" x="95" y="7"/><ellipse cx="110" cy="26.8945" fill="#ADD1B2" rx="11" ry="11" style="stroke:#181818;stroke-width:1.0;"/><path d="M112.9688,32.5352 Q112.3906,32.832 111.75,32.9727 Q111.1094,33.1289 110.4063,33.1289 Q107.9063,33.1289 106.5781,31.4883 Q105.2656,29.832 105.2656,26.707 Q105.2656,23.582 106.5781,21.9258 Q107.9063,20.2695 110.4063,20.2695 Q111.1094,20.2695 111.75,20.4258 Q112.4063,20.582 112.9688,20.8789 L112.9688,23.5977 Q112.3438,23.0195 111.75,22.7539 Q111.1563,22.4727 110.5313,22.4727 Q109.1875,22.4727 108.5,23.5508 Q107.8125,24.6133 107.8125,26.707 Q107.8125,28.8008 108.5,29.8789 Q109.1875,30.9414 110.5313,30.9414 Q111.1563,30.9414 111.75,30.6758 Q112.3438,30.3945 112.9688,29.8164 L112.9688,32.5352 Z " fill="#000000"/><text fill="#D9B8FF" font-family="Helvetica" font-size="17" lengthAdjust="spacing" textLength="176" x="129" y="32.7798">gcp_vertex_ai_model</text></g><!--link gcp_vertex_ai_dataset to gcp_vertex_ai_dataset_version--><g id="link_gcp_vertex_ai_dataset_gcp_vertex_ai_dataset_version"><path codeLine="32" d="M137.4,147.01 C151.95,164.15 169.2186,184.4845 183.7586,201.6245 " fill="none" id="gcp_vertex_ai_dataset-to-gcp_vertex_ai_dataset_version" style="stroke:#1A83AF;stroke-width:2.0;"/><polygon fill="#1A83AF" points="187.64,206.2,184.8682,196.7492,184.4055,202.3871,178.7676,201.9244,187.64,206.2" style="stroke:#1A83AF;stroke-width:2.0;"/></g><!--link gcp_vertex_ai_model to gcp_vertex_ai_dataset--><g id="link_gcp_vertex_ai_model_gcp_vertex_ai_dataset"><path codeLine="33" d="M187.6,47.22 C173.05,64.36 155.7814,84.6945 141.2414,101.8345 " fill="none" id="gcp_vertex_ai_model-to-gcp_vertex_ai_dataset" style="stroke:#1A83AF;stroke-width:2.0;"/><polygon fill="#1A83AF" points="137.36,106.41,146.2324,102.1344,140.5945,102.5971,140.1318,96.9592,137.36,106.41" style="stroke:#1A83AF;stroke-width:2.0;"/></g><!--link gcp_vertex_ai_model to gcp_vertex_ai_dataset_version--><g id="link_gcp_vertex_ai_model_gcp_vertex_ai_dataset_version"><path codeLine="34" d="M220.27,47.17 C231.92,62.29 246.63,84.46 253,106.79 C257.85,123.8 257.85,129.58 253,146.58 C246.63,168.91 235.5805,186.326 223.9305,201.456 " fill="none" id="gcp_vertex_ai_model-to-gcp_vertex_ai_dataset_version" style="stroke:#1A83AF;stroke-width:2.0;"/><polygon fill="#1A83AF" points="220.27,206.21,228.9301,201.5194,223.3205,202.2483,222.5915,196.6387,220.27,206.21" style="stroke:#1A83AF;stroke-width:2.0;"/></g><!--SRC=[dP1FIyD04CNl-HGBFHSQYxQv235Gz5B4UXCfq-nikpJP3RFJrYf-TutLiirVy3hlD_FUcusMA30l-2Xop5T8Bd1RRGeWo4LCP0-9pIo9WLAWnfEgEBE6Uu4vv2ZkCTiZwnIgnFD6frk3peahJxg3TBickpFoT9u9ZFkMqB179Hau5pEJNkqOlJ0oMasLgfBLeuEn32StMCCiIQHVP3GQoJ2g8hrMdRtFn4A_emZzfyqjOorcpUA7wanP4bx8Mj4_lJNZ8qYfpLfSUxEdKoOoI1VpnGQaFPIqWipvDewHqFAnmAJM2gEfL9D6-A4D3jBoTMAT5iiz4kFR4lHI0eD35Xz1yDa5b1EdhMa7SoinEydD5iENGHXFn_7iTNZRRH8qNUvV_-VQsVKB]--></g></svg>

<svg xmlns="http://www.w3.org/2000/svg" width="360" height="252" viewBox="0 0 360 252"><rect width="228" height="39.789" x="7" y="106.79" fill="#3D176E" rx="2.5" ry="2.5" style="stroke:#000d19;stroke-width:.5"/><circle cx="22" cy="126.684" r="11" fill="#ADD1B2" style="stroke:#181818;stroke-width:1"/><path d="M24.969 132.325q-.578.297-1.219.438-.64.156-1.344.156-2.5 0-3.828-1.64-1.312-1.657-1.312-4.782t1.312-4.781q1.328-1.656 3.828-1.656.703 0 1.344.156.656.156 1.219.453v2.719q-.625-.579-1.219-.844-.594-.281-1.219-.281-1.343 0-2.031 1.078-.687 1.062-.687 3.156t.687 3.172q.688 1.062 2.031 1.062.625 0 1.219-.265.594-.281 1.219-.86z"/><text x="41" y="132.57" fill="#D9B8FF" font-family="Helvetica" font-size="17" textLength="186">gcp_vertex_ai_dataset</text><rect width="298" height="39.789" x="55" y="206.58" fill="#3D176E" rx="2.5" ry="2.5" style="stroke:#000d19;stroke-width:.5"/><circle cx="70" cy="226.475" r="11" fill="#ADD1B2" style="stroke:#181818;stroke-width:1"/><path d="M72.969 232.115q-.578.297-1.219.438-.64.156-1.344.156-2.5 0-3.828-1.64-1.312-1.657-1.312-4.782t1.312-4.781q1.328-1.656 3.828-1.656.703 0 1.344.156.656.156 1.219.453v2.719q-.625-.578-1.219-.844-.594-.281-1.219-.281-1.344 0-2.031 1.078-.687 1.062-.687 3.156t.687 3.172q.688 1.062 2.031 1.062.625 0 1.219-.265.594-.281 1.219-.86z"/><text x="89" y="232.36" fill="#D9B8FF" font-family="Helvetica" font-size="17" textLength="256">gcp_vertex_ai_dataset_version</text><rect width="218" height="39.789" x="95" y="7" fill="#3D176E" rx="2.5" ry="2.5" style="stroke:#000d19;stroke-width:.5"/><circle cx="110" cy="26.895" r="11" fill="#ADD1B2" style="stroke:#181818;stroke-width:1"/><path d="M112.969 32.535q-.578.297-1.219.438-.64.156-1.344.156-2.5 0-3.828-1.64-1.312-1.657-1.312-4.782t1.312-4.781q1.328-1.656 3.828-1.656.703 0 1.344.156.656.156 1.219.453v2.719q-.625-.578-1.219-.844-.594-.281-1.219-.281-1.344 0-2.031 1.078-.687 1.062-.687 3.156t.687 3.172q.688 1.062 2.031 1.062.625 0 1.219-.265.594-.281 1.219-.86z"/><text x="129" y="32.78" fill="#D9B8FF" font-family="Helvetica" font-size="17" textLength="176">gcp_vertex_ai_model</text><path fill="none" d="M137.4 147.01c14.55 17.14 31.819 37.475 46.359 54.615" style="stroke:#1a83af;stroke-width:2"/><path fill="#1A83AF" d="m187.64 206.2-2.772-9.45-.463 5.637-5.637-.463z" style="stroke:#1a83af;stroke-width:2"/><path fill="none" d="M187.6 47.22c-14.55 17.14-31.819 37.475-46.359 54.615" style="stroke:#1a83af;stroke-width:2"/><path fill="#1A83AF" d="m137.36 106.41 8.872-4.276-5.637.463-.463-5.638z" style="stroke:#1a83af;stroke-width:2"/><path fill="none" d="M220.27 47.17c11.65 15.12 26.36 37.29 32.73 59.62 4.85 17.01 4.85 22.79 0 39.79-6.37 22.33-17.42 39.746-29.07 54.876" style="stroke:#1a83af;stroke-width:2"/><path fill="#1A83AF" d="m220.27 206.21 8.66-4.69-5.61.728-.728-5.61z" style="stroke:#1a83af;stroke-width:2"/></svg>
